X: 79
T:Mazurka
M:3/4
L:1/8
S:Neil Brooks
R:Mazurka
Z:Steve Mansfield
K:G
G>A |: B2B2c>A | B2B2c>d | c2c>BA>G | A2A2G>A | B2B2c>A | B2B2c>d |
c2c>BA>G |1 A2A2G>A :|2 A2A>Bc>d |: e2g>fe>f | d3c B>A | G2G>A B>G |
D4G>F | E2E>F G>A | G2F2E2 | F2F>G A>B |1A2A>B c>d :|2 G4 ||

